lib/flags/s/LR.svg

<svg xmlns="http://www.w3.org/2000/svg" fill="none" viewBox="0 0 16 12"><mask id="LR_svg__a" width="16" height="12" x="0" y="0" mask-type="alpha" maskUnits="userSpaceOnUse"><path fill="#fff" d="M0 0H16V12H0z"/></mask><g mask="url(#LR_svg__a)"><path fill="#F7FCFF" fill-rule="evenodd" d="M0 0H16V12H0V0Z" clip-rule="evenodd"/><path fill="#E31D1C" d="M.014 2.75H16.014V4.25H.014z"/><path fill="#E31D1C" fill-rule="evenodd" d="M0 0H16V1.5H0V0Z" clip-rule="evenodd"/><path fill="#E31D1C" d="M-.029 5.5H15.971V7H-.029z"/><path fill="#E31D1C" d="M.056 8.2H16.056V9.7H.056z"/><path fill="#E31D1C" d="M.051 10.75H16.051V12.25H.051z"/><path fill="#3D58DB" fill-rule="evenodd" d="M0 0H8V7H0V0Z" clip-rule="evenodd"/><path fill="#F7FCFF" fill-rule="evenodd" d="M4.06624 4.60654L2.60555 5.6197L3.07229 3.8844L2 2.77589L3.45195 2.71595L4.06624 1L4.68053 2.71595H6.13L5.06018 3.8844L5.59596 5.51728L4.06624 4.60654Z" clip-rule="evenodd"/></g></svg>

<svg xmlns="http://www.w3.org/2000/svg" fill="none" viewBox="0 0 16 12"><mask id="LR_svg__a" width="16" height="12" x="0" y="0" maskUnits="userSpaceOnUse"><path fill="#fff" d="M0 0h16v12H0z"/></mask><g mask="url(#LR_svg__a)"><path fill="#F7FCFF" fill-rule="evenodd" d="M0 0h16v12H0V0z" clip-rule="evenodd"/><path fill="#E31D1C" d="M.014 2.75h16v1.5h-16z"/><path fill="#E31D1C" fill-rule="evenodd" d="M0 0h16v1.5H0V0z" clip-rule="evenodd"/><path fill="#E31D1C" d="M-.029 5.5h16V7h-16zm.085 2.7h16v1.5h-16zm-.005 2.55h16v1.5h-16z"/><path fill="#3D58DB" fill-rule="evenodd" d="M0 0h8v7H0V0z" clip-rule="evenodd"/><path fill="#F7FCFF" fill-rule="evenodd" d="M4.066 4.607L2.606 5.62l.466-1.736L2 2.776l1.452-.06L4.066 1l.615 1.716H6.13L5.06 3.884l.536 1.633-1.53-.91z" clip-rule="evenodd"/></g></svg>
